images_elementary_svg/cmd/32/datafilterautofilter.svg

<svg height="32" width="32" xmlns="http://www.w3.org/2000/svg" xmlns:xlink="http://www.w3.org/1999/xlink"><linearGradient id="a" gradientTransform="matrix(-.222635 -.37381299 .385616 -.215821 26.912532 54.139086)" gradientUnits="userSpaceOnUse" spreadMethod="reflect" x1="82.923607" x2="107.10129" y1="27.590219" y2="27.913111"><stop offset="0" stop-color="#c2c3c4"/><stop offset=".09508789" stop-color="#c4c5c8"/><stop offset="1" stop-color="#fcfcfc"/></linearGradient><linearGradient id="b" gradientUnits="userSpaceOnUse" x1="16.023764" x2="16.023764" y1="1.908505" y2="15.058398"><stop offset="0" stop-color="#fff"/><stop offset=".40498418" stop-color="#fff" stop-opacity=".235294"/><stop offset=".74407381" stop-color="#fff" stop-opacity=".156863"/><stop offset="1" stop-color="#fff" stop-opacity=".392157"/></linearGradient><linearGradient id="c" gradientUnits="userSpaceOnUse" x1=".110175" x2="22.257858" y1="11.067201" y2="11.067201"><stop offset="0" stop-opacity=".339506"/><stop offset="1" stop-opacity=".246914"/></linearGradient><linearGradient id="d" gradientTransform="matrix(.26726 0 0 1.15755 9.316 -10.704)" gradientUnits="userSpaceOnUse" x1="-32.957001" x2="-25.474001" y1="27.389" y2="27.389"><stop offset="0" stop-color="#2e3436"/><stop offset=".644" stop-color="#888a85"/><stop offset="1" stop-color="#555753"/></linearGradient><linearGradient id="e" gradientTransform="matrix(.77602 .23906 -.31605 .56748 -20.168 4.55)" gradientUnits="userSpaceOnUse" x1="27.528" x2="30.42" y1="4.167" y2="2.949"><stop offset="0" stop-color="#eeeeec"/><stop offset=".789" stop-color="#fff"/><stop offset="1" stop-color="#eeeeec"/></linearGradient><g transform="matrix(-.666665 1.15469764658 -1.15469764658 -.666665 34.09286648049 5.588917914)"><path d="m10.112109 20.640247 2.344358-1.353516 2.577474-10.152871 7.75657-4.4910156c-.197165-1.8980106-.477122-2.2130313-1.815675-3.3089052l-7.827612 4.5320314-10.0477951-2.8095425-2.3443578 1.3535156 4.617902 7.9945343z" fill="url(#a)" fill-rule="evenodd" stroke="url(#c)" stroke-linejoin="round" stroke-width=".750002"/><path d="m10.384459 19.601343 1.396676-.809373 2.548976-10.4357723 7.424489-4.2068225c-.116979-1.2203799-.284255-.9985287-.941405-1.630561l-7.344411 4.3455216-10.2614364-2.9929137-1.4284221.8247001z" fill="none" stroke="url(#b)" stroke-width=".750002"/><g transform="matrix(-1.0583526 -.61103735 .51706699 -.89556817 3.574997 23.765997)"><path d="m.5 18v12.438c0 .58.297 1.062.667 1.062h.666c.37 0 .667-.48.667-1.063v-12.437z" fill="url(#d)" fill-rule="evenodd"/><rect fill="none" height="21" opacity=".3" rx=".749" ry=".929" stroke="#000" stroke-width=".667" width="2" x=".5" y="10.5"/><path d="m1.167 10.5c-.37 0-.667.48-.667 1.063v6.437h2v-6.438c0-.58-.297-1.062-.667-1.062z" fill="url(#e)" fill-rule="evenodd" opacity=".9"/></g></g></svg>

<?xml version="1.0" encoding="UTF-8" standalone="no"?>
<svg
   xmlns:dc="http://purl.org/dc/elements/1.1/"
   xmlns:cc="http://creativecommons.org/ns#"
   xmlns:rdf="http://www.w3.org/1999/02/22-rdf-syntax-ns#"
   xmlns:svg="http://www.w3.org/2000/svg"
   xmlns="http://www.w3.org/2000/svg"
   xmlns:xlink="http://www.w3.org/1999/xlink"
   xmlns:sodipodi="http://sodipodi.sourceforge.net/DTD/sodipodi-0.dtd"
   xmlns:inkscape="http://www.inkscape.org/namespaces/inkscape"
   version="1.1"
   width="32"
   height="32"
   id="svg4007"
   sodipodi:docname="datafilterautofilter.svg"
   inkscape:version="0.92.3 (unknown)"
   inkscape:export-filename="/home/rizmut/Dokumen/Rizmut/Github/libreoffice-style-elementary/images_elementary/cmd/32/datafilterstandardfilter.png"
   inkscape:export-xdpi="96"
   inkscape:export-ydpi="96">
  <sodipodi:namedview
     pagecolor="#ffffff"
     bordercolor="#666666"
     borderopacity="1"
     objecttolerance="10"
     gridtolerance="10"
     guidetolerance="10"
     inkscape:pageopacity="0"
     inkscape:pageshadow="2"
     inkscape:window-width="1366"
     inkscape:window-height="706"
     id="namedview32"
     showgrid="true"
     inkscape:snap-global="false"
     inkscape:zoom="5.6568543"
     inkscape:cx="-3.5745713"
     inkscape:cy="25.001981"
     inkscape:window-x="0"
     inkscape:window-y="0"
     inkscape:window-maximized="1"
     inkscape:current-layer="g1004">
    <inkscape:grid
       type="xygrid"
       id="grid845" />
  </sodipodi:namedview>
  <defs
     id="defs4009">
    <linearGradient
       id="linearGradient964">
      <stop
         offset="0"
         style="stop-color:#ffffff;stop-opacity:1"
         id="stop956" />
      <stop
         offset="0.40498418"
         style="stop-color:#ffffff;stop-opacity:0.23529412"
         id="stop958" />
      <stop
         offset="0.74407381"
         style="stop-color:#ffffff;stop-opacity:0.15686275"
         id="stop960" />
      <stop
         offset="1"
         style="stop-color:#ffffff;stop-opacity:0.39215687"
         id="stop962" />
    </linearGradient>
    <linearGradient
       y2="27.913111"
       x2="107.10129"
       y1="27.590219"
       x1="82.923607"
       spreadMethod="reflect"
       gradientTransform="matrix(-0.222635,-0.37381299,0.385616,-0.215821,26.912532,54.139086)"
       gradientUnits="userSpaceOnUse"
       id="linearGradient15986"
       xlink:href="#linearGradient14411" />
    <linearGradient
       id="linearGradient14411">
      <stop
         style="stop-color:#c2c3c4;stop-opacity:1"
         offset="0"
         id="stop14413" />
      <stop
         id="stop14415"
         offset="0.09508789"
         style="stop-color:#c4c5c8;stop-opacity:1" />
      <stop
         style="stop-color:#fcfcfc;stop-opacity:1"
         offset="1"
         id="stop14417" />
    </linearGradient>
    <radialGradient
       gradientTransform="matrix(0.50706084,0,0,0.50357398,-7.1628404,3.0170551)"
       r="4.3006992"
       fy="21.21833"
       fx="24.660349"
       cy="21.21833"
       cx="24.660349"
       gradientUnits="userSpaceOnUse"
       id="radialGradient15988"
       xlink:href="#linearGradient8059" />
    <linearGradient
       id="linearGradient8059">
      <stop
         style="stop-color:#ffffff;stop-opacity:1.0000000;"
         offset="0.0000000"
         id="stop8061" />
      <stop
         style="stop-color:#9d9d9d;stop-opacity:1"
         offset="1.0000000"
         id="stop8063" />
    </linearGradient>
    <linearGradient
       y2="240.80917"
       x2="195.83525"
       y1="235.83804"
       x1="194.15193"
       gradientTransform="rotate(-3.5148819,-3623.5832,3224.8338)"
       gradientUnits="userSpaceOnUse"
       id="linearGradient15993"
       xlink:href="#linearGradient17889" />
    <linearGradient
       id="linearGradient17889">
      <stop
         id="stop17891"
         offset="0"
         style="stop-color:#cfd1d3;stop-opacity:1;" />
      <stop
         id="stop17893"
         offset="1"
         style="stop-color:#cfd1d3;stop-opacity:0;" />
    </linearGradient>
    <linearGradient
       gradientUnits="userSpaceOnUse"
       y2="15.044191"
       x2="16.015562"
       y1="1.8942976"
       x1="16.015562"
       id="linearGradient954"
       xlink:href="#linearGradient964"
       gradientTransform="translate(0.00820202,0.01420663)" />
    <linearGradient
       id="c"
       gradientTransform="matrix(0.26725589,0,0,1.157552,9.315594,-10.704165)"
       gradientUnits="userSpaceOnUse"
       x1="-32.957481"
       x2="-25.474016"
       y1="27.388975"
       y2="27.388975">
      <stop
         offset="0"
         stop-color="#2e3436"
         id="stop8" />
      <stop
         offset=".64444447"
         stop-color="#888a85"
         id="stop10" />
      <stop
         offset="1"
         stop-color="#555753"
         id="stop12" />
    </linearGradient>
    <linearGradient
       id="d"
       gradientTransform="matrix(0.77602087,0.23906428,-0.31605097,0.56747902,-20.167798,4.551095)"
       gradientUnits="userSpaceOnUse"
       x1="27.52779"
       x2="30.419695"
       y1="4.1670198"
       y2="2.948735">
      <stop
         offset="0"
         stop-color="#eeeeec"
         id="stop15" />
      <stop
         offset=".78888887"
         stop-color="#fff"
         id="stop17" />
      <stop
         offset="1"
         stop-color="#eeeeec"
         id="stop19" />
    </linearGradient>
    <linearGradient
       gradientTransform="matrix(0.28571361,0,0,0.30419701,1.1428727,0.2326048)"
       gradientUnits="userSpaceOnUse"
       xlink:href="#linearGradient3600"
       id="linearGradient3940"
       y2="47.013336"
       x2="25.132275"
       y1="0.98520643"
       x1="25.132275" />
    <linearGradient
       id="linearGradient3600">
      <stop
         offset="0"
         style="stop-color:#f4f4f4;stop-opacity:1"
         id="stop3602" />
      <stop
         offset="1"
         style="stop-color:#dbdbdb;stop-opacity:1"
         id="stop3604" />
    </linearGradient>
    <linearGradient
       gradientTransform="matrix(0.24324324,0,0,0.35135133,2.1621636,-0.43242804)"
       gradientUnits="userSpaceOnUse"
       xlink:href="#linearGradient3977"
       id="linearGradient3095"
       y2="41.076912"
       x2="23.99999"
       y1="6.9230647"
       x1="23.99999" />
    <linearGradient
       id="linearGradient3977">
      <stop
         offset="0"
         style="stop-color:#ffffff;stop-opacity:1"
         id="stop3979" />
      <stop
         offset="0"
         style="stop-color:#ffffff;stop-opacity:0.23529412"
         id="stop3981" />
      <stop
         offset="1"
         style="stop-color:#ffffff;stop-opacity:0.15686275"
         id="stop3983" />
      <stop
         offset="1"
         style="stop-color:#ffffff;stop-opacity:0.39215687"
         id="stop3985" />
    </linearGradient>
    <linearGradient
       gradientTransform="matrix(0.25378586,0,0,0.30501865,19.128979,-0.68547704)"
       gradientUnits="userSpaceOnUse"
       xlink:href="#linearGradient3104-9"
       id="linearGradient3092"
       y2="2.9062471"
       x2="-51.786404"
       y1="50.786446"
       x1="-51.786404" />
    <linearGradient
       id="linearGradient3104-9">
      <stop
         offset="0"
         style="stop-color:#000000;stop-opacity:0.33950618"
         id="stop3106-5" />
      <stop
         offset="1"
         style="stop-color:#000000;stop-opacity:0.24691358"
         id="stop3108-5" />
    </linearGradient>
    <linearGradient
       inkscape:collect="always"
       xlink:href="#linearGradient3104-9"
       id="linearGradient1135"
       x1="0.11017474"
       y1="11.067201"
       x2="22.257858"
       y2="11.067201"
       gradientUnits="userSpaceOnUse" />
    <linearGradient
       id="c-8"
       gradientTransform="matrix(0.26726,0,0,1.15755,9.316,-10.704)"
       gradientUnits="userSpaceOnUse"
       x1="-32.957001"
       x2="-25.474001"
       y1="27.389"
       y2="27.389">
      <stop
         offset="0"
         stop-color="#2e3436"
         id="stop8-0" />
      <stop
         offset=".644"
         stop-color="#888a85"
         id="stop10-4" />
      <stop
         offset="1"
         stop-color="#555753"
         id="stop12-2" />
    </linearGradient>
    <linearGradient
       id="d-9"
       gradientTransform="matrix(0.77602,0.23906,-0.31605,0.56748,-20.168,4.55)"
       gradientUnits="userSpaceOnUse"
       x1="27.528"
       x2="30.42"
       y1="4.1669998"
       y2="2.9489999">
      <stop
         offset="0"
         stop-color="#eeeeec"
         id="stop15-6" />
      <stop
         offset=".789"
         stop-color="#fff"
         id="stop17-1" />
      <stop
         offset="1"
         stop-color="#eeeeec"
         id="stop19-0" />
    </linearGradient>
  </defs>
  <metadata
     id="metadata4012">
    <rdf:RDF>
      <cc:Work
         rdf:about="">
        <dc:format>image/svg+xml</dc:format>
        <dc:type
           rdf:resource="http://purl.org/dc/dcmitype/StillImage" />
        <dc:title></dc:title>
      </cc:Work>
    </rdf:RDF>
  </metadata>
  <g
     id="g843"
     transform="rotate(120,8.9442039,13.871156)">
    <g
       id="g1004"
       transform="matrix(1.33333,0,0,1.33333,-10.802756,-3.7671056)">
      <path
         sodipodi:nodetypes="cccccccccc"
         inkscape:connector-curvature="0"
         id="path16943"
         d="M 10.112109,20.640247 12.456467,19.286731 15.033941,9.13386 22.790511,4.6428444 C 22.593346,2.7448338 22.313389,2.4298131 20.974836,1.3339392 L 13.147224,5.8659706 3.0994289,3.0564281 0.7550711,4.4099437 5.3729731,12.404478 Z"
         style="opacity:1;fill:url(#linearGradient15986);fill-opacity:1;fill-rule:evenodd;stroke:url(#linearGradient1135);stroke-width:0.75000191;stroke-linecap:butt;stroke-linejoin:round;stroke-miterlimit:4;stroke-dasharray:none;stroke-opacity:1" />
      <path
         sodipodi:nodetypes="ccccccccc"
         inkscape:connector-curvature="0"
         id="path16947"
         d="M 10.384459,19.601343 11.781135,18.79197 14.330111,8.3561977 21.7546,4.1493752 C 21.637621,2.9289953 21.470345,3.1508465 20.813195,2.5188142 L 13.468784,6.8643358 3.2073476,3.8714221 1.7789255,4.6961222 Z"
         style="opacity:1;fill:none;stroke:url(#linearGradient954);stroke-width:0.75000191;stroke-linecap:butt;stroke-linejoin:miter;stroke-miterlimit:4;stroke-dasharray:none;stroke-opacity:1" />
      <g
         transform="translate(-4.2509766,-7.3629075)"
         id="g959" />
      <g
         transform="matrix(-1.0583526,-0.61103735,0.51706699,-0.89556817,3.5749969,23.765997)"
         id="g54">
        <path
           style="fill:url(#c-8);fill-rule:evenodd"
           inkscape:connector-curvature="0"
           d="m 0.5,18 v 12.438 c 0,0.58 0.297,1.062 0.667,1.062 H 1.833 C 2.203,31.5 2.5,31.02 2.5,30.437 V 18 Z"
           id="path48" />
        <rect
           style="opacity:0.3;fill:none;stroke:#000000;stroke-width:0.667"
           height="21"
           rx="0.74900001"
           ry="0.92900002"
           width="2"
           x="0.5"
           y="10.5"
           id="rect50" />
        <path
           style="opacity:0.9;fill:url(#d-9);fill-rule:evenodd"
           inkscape:connector-curvature="0"
           d="M 1.167,10.5 C 0.797,10.5 0.5,10.98 0.5,11.563 V 18 h 2 V 11.562 C 2.5,10.982 2.203,10.5 1.833,10.5 Z"
           id="path52" />
      </g>
    </g>
  </g>
</svg>
